X:252
T:Reel 252
M:4/4
K:Dmaj
L:1/8
FE|DCDE FGFE|DEFG ABcd|edce dcAG|FEFG A2CE|DCDE FEFA|GFGF GABc|dBcA BGAF|EDCE D2|FG|AGAB c2AB|cded cAG2|Addc d2Ad|edfe d2AB|cBcA B2AG|FGFE DFAG|FGAB cdcd|eddc d2|
